picto/showers-framed.svg

<svg class="color-immutable" width="30" height="30" viewBox="0 0 30 30" fill="none" xmlns="http://www.w3.org/2000/svg"><path d="M29.9999 0H0V29.9999H29.9999V0Z" fill="#2D327D"/><path d="M25.4999 2.99999C26.3249 2.99999 26.9999 3.67499 26.9999 4.49999V25.4999C26.9999 26.3249 26.3249 26.9999 25.4999 26.9999H4.49999C3.67499 26.9999 2.99999 26.3249 2.99999 25.4999V4.49999C2.99999 3.67499 3.67499 2.99999 4.49999 2.99999H25.4999ZM25.4999 2.62499H4.49999C3.46612 2.62499 2.62499 3.46612 2.62499 4.49999V25.4999C2.62499 26.5338 3.46612 27.3749 4.49999 27.3749H25.4999C26.5338 27.3749 27.3749 26.5338 27.3749 25.4999V4.49999C27.3749 3.46612 26.5338 2.62499 25.4999 2.62499Z" fill="white"/><path d="M6.38478 21.7482C6.29216 21.7482 6.21296 21.8159 6.19916 21.9079L5.91768 23.7874C5.91588 23.7965 5.91588 23.8049 5.91588 23.8151C5.91588 23.9174 5.99936 24.0026 6.10346 24.0026C6.19548 24.0026 6.27423 23.9339 6.28818 23.843L6.57063 21.9638C6.57168 21.9545 6.57273 21.9452 6.57273 21.9359C6.57266 21.8327 6.48791 21.7482 6.38478 21.7482Z" fill="white"/><path d="M6.94679 17.9988C6.85507 17.9988 6.77602 18.0657 6.76207 18.1567L6.47969 20.038C6.47864 20.0455 6.47789 20.0556 6.47789 20.0659C6.47789 20.168 6.56242 20.2515 6.66547 20.2515C6.75847 20.2515 6.83729 20.1837 6.85049 20.0936L7.13294 18.2126C7.13474 18.2051 7.13474 18.195 7.13474 18.1847C7.13467 18.0825 7.05097 17.9988 6.94679 17.9988Z" fill="white"/><path d="M7.45324 14.6228C7.36024 14.6228 7.28157 14.6908 7.26822 14.7825L6.98577 16.662C6.98502 16.6713 6.98412 16.6806 6.98412 16.6899C6.98412 16.7937 7.06782 16.8772 7.17192 16.8772C7.26454 16.8772 7.34254 16.8087 7.35754 16.7175L7.63901 14.8384C7.64081 14.8292 7.64172 14.8198 7.64172 14.8106C7.64187 14.7073 7.55742 14.6228 7.45324 14.6228Z" fill="white"/><path d="M7.62153 13.8774C7.71415 13.8774 7.79328 13.8096 7.80723 13.7168L8.0887 11.8383C8.0896 11.8281 8.09035 11.8208 8.09035 11.8107C8.09035 11.7075 8.00688 11.6219 7.90375 11.6219C7.81075 11.6219 7.73208 11.6907 7.71813 11.7826L7.43651 13.6608C7.43561 13.6711 7.43456 13.6794 7.43456 13.6887C7.43463 13.793 7.51833 13.8774 7.62153 13.8774Z" fill="white"/><path d="M8.08403 19.1244C7.98833 19.1244 7.90846 19.1967 7.89811 19.2915L7.68623 21.1689C7.68541 21.1754 7.68541 21.1818 7.68541 21.1893C7.68541 21.2924 7.76896 21.3758 7.87223 21.3758C7.96793 21.3758 8.04886 21.3043 8.05876 21.2097L8.26958 19.3323C8.27176 19.3259 8.27176 19.3191 8.27176 19.3119C8.27191 19.2078 8.18813 19.1244 8.08403 19.1244Z" fill="white"/><path d="M8.46299 15.7491C8.36811 15.7491 8.28831 15.8206 8.27721 15.9155L8.06654 17.7929C8.06541 17.7994 8.06541 17.8058 8.06541 17.8133C8.06541 17.9172 8.14911 18.0009 8.25216 18.0009C8.34779 18.0009 8.42789 17.9301 8.43899 17.8337L8.65071 15.9563C8.65071 15.9496 8.65071 15.9431 8.65071 15.9359C8.65071 15.8329 8.56716 15.7491 8.46299 15.7491Z" fill="white"/><path d="M8.98903 12.9358C8.98903 12.8327 8.90443 12.7493 8.80131 12.7493C8.70568 12.7493 8.62498 12.8198 8.61456 12.9144L8.40373 14.7918C8.40298 14.7994 8.40208 14.8068 8.40208 14.8132C8.40208 14.9181 8.48646 15.0015 8.58951 15.0015C8.68536 15.0015 8.76523 14.9292 8.77633 14.8347L8.98716 12.9574C8.98813 12.9498 8.98903 12.9423 8.98903 12.9358Z" fill="white"/><path d="M9.19244 21.7492C9.09374 21.7492 9.01311 21.8262 9.00561 21.9228L8.86424 23.7992C8.86424 23.8039 8.86424 23.8095 8.86424 23.8132C8.86424 23.9163 8.94794 24.0008 9.05226 24.0008C9.14954 24.0008 9.23144 23.9246 9.23789 23.8271L9.37896 21.9508C9.38001 21.9469 9.38001 21.9415 9.38001 21.9376C9.38001 21.8337 9.29631 21.7492 9.19244 21.7492Z" fill="white"/><path d="M9.4738 17.9999C9.3754 17.9999 9.29373 18.0751 9.28638 18.1725L9.14598 20.0491C9.14598 20.0548 9.14598 20.0584 9.14598 20.062C9.14598 20.1669 9.22945 20.2506 9.33273 20.2506C9.4312 20.2506 9.51295 20.1754 9.5203 20.0778L9.66063 18.2004C9.66138 18.1957 9.66138 18.1921 9.66138 18.1864C9.66145 18.0833 9.57693 17.9999 9.4738 17.9999Z" fill="white"/><path d="M9.72641 14.6238C9.62809 14.6238 9.54709 14.7009 9.53974 14.7975L9.39934 16.6738C9.39866 16.6785 9.39866 16.6842 9.39866 16.6878C9.39866 16.7909 9.48304 16.8753 9.58609 16.8753C9.68381 16.8753 9.76541 16.7994 9.77291 16.7017L9.91324 14.8254C9.91399 14.8215 9.91399 14.8161 9.91399 14.8122C9.91399 14.7084 9.83066 14.6238 9.72641 14.6238Z" fill="white"/><path d="M9.95134 11.6238C9.85392 11.6238 9.77202 11.7 9.76557 11.7985L9.62419 13.674C9.62352 13.6776 9.62352 13.6833 9.62352 13.6881C9.62352 13.7911 9.70789 13.8763 9.81094 13.8763C9.90941 13.8763 9.99026 13.7995 9.99776 13.702L10.1388 11.8264C10.1388 11.8219 10.1388 11.816 10.1388 11.8114C10.1389 11.7094 10.0556 11.6238 9.95134 11.6238Z" fill="white"/><path d="M10.6944 19.1251C10.5941 19.1251 10.5115 19.2042 10.5068 19.3044L10.4363 21.1808C10.4363 21.1836 10.4363 21.1854 10.4363 21.1875C10.4363 21.2914 10.5209 21.3759 10.6238 21.3759C10.7252 21.3759 10.8078 21.295 10.8114 21.1947L10.8822 19.3202C10.8822 19.3173 10.8822 19.3145 10.8822 19.3119C10.8823 19.2088 10.7986 19.1251 10.6944 19.1251Z" fill="white"/><path d="M10.8208 15.7491C10.7205 15.7491 10.6371 15.8299 10.6343 15.9302L10.5635 17.8058C10.5635 17.8076 10.5635 17.8105 10.5635 17.8133C10.5635 17.9164 10.6472 17.9998 10.7513 17.9998C10.8526 17.9998 10.9343 17.921 10.9379 17.8205L11.0087 15.9442C11.0087 15.9413 11.0087 15.9395 11.0087 15.9377C11.0086 15.8336 10.9249 15.7491 10.8208 15.7491Z" fill="white"/><path d="M10.9331 12.7493C10.8328 12.7493 10.7503 12.8299 10.7466 12.9301L10.676 14.8049C10.676 14.8075 10.676 14.8104 10.676 14.8131C10.676 14.9163 10.7595 14.9997 10.8636 14.9997C10.9639 14.9997 11.0476 14.9199 11.0501 14.8196L11.1209 12.944C11.1209 12.9412 11.1209 12.9404 11.1209 12.9365C11.121 12.8346 11.0373 12.7493 10.9331 12.7493Z" fill="white"/><path d="M7.95408 11.2486H16.0472C16.2945 11.2486 16.4968 11.0482 16.4968 10.7993C16.4968 10.7585 16.4915 10.7187 16.4804 10.6798C15.9943 8.93293 14.5385 7.62763 12.7495 7.33604V5.99999H11.2499V7.33611C9.46082 7.62771 8.0059 8.93301 7.52028 10.6798C7.50918 10.7188 7.5034 10.7585 7.5034 10.7994C7.50333 11.0481 7.70493 11.2486 7.95408 11.2486Z" fill="white"/><path d="M12.0008 11.6256C11.8967 11.6256 11.813 11.7094 11.813 11.8114V13.6881C11.813 13.7911 11.8967 13.8745 12.0008 13.8745C12.1029 13.8745 12.1875 13.7911 12.1875 13.6881V11.8114C12.1875 11.7094 12.1028 11.6256 12.0008 11.6256Z" fill="white"/><path d="M12.0008 14.6249C11.8967 14.6249 11.813 14.7084 11.813 14.8123V16.6879C11.813 16.791 11.8967 16.8747 12.0008 16.8747C12.1029 16.8747 12.1875 16.791 12.1875 16.6879V14.8123C12.1875 14.7084 12.1028 14.6249 12.0008 14.6249Z" fill="white"/><path d="M12.0008 17.9999C11.8967 17.9999 11.813 18.0834 11.813 18.1885V20.062C11.813 20.1661 11.8967 20.2506 12.0008 20.2506C12.1029 20.2506 12.1875 20.1661 12.1875 20.062V18.1885C12.1875 18.0833 12.1028 17.9999 12.0008 17.9999Z" fill="white"/><path d="M12.0008 21.75C11.8967 21.75 11.813 21.8337 11.813 21.9376V23.8132C11.813 23.9163 11.8967 23.9997 12.0008 23.9997C12.1029 23.9997 12.1875 23.9162 12.1875 23.8132V21.9376C12.1875 21.8337 12.1028 21.75 12.0008 21.75Z" fill="white"/><path d="M13.1369 14.9998C13.2401 14.9998 13.3236 14.9164 13.3236 14.8133C13.3236 14.8106 13.3236 14.8076 13.3236 14.8051L13.254 12.9303C13.2501 12.83 13.1675 12.7495 13.0664 12.7495C12.9631 12.7495 12.8786 12.8347 12.8786 12.9367C12.8786 12.9406 12.8786 12.9414 12.8786 12.9442H12.8797L12.9494 14.8198C12.9538 14.92 13.0364 14.9998 13.1369 14.9998Z" fill="white"/><path d="M13.2493 17.9999C13.3524 17.9999 13.4369 17.9164 13.4369 17.8134C13.4369 17.8105 13.4369 17.8077 13.4369 17.8059L13.3663 15.9303C13.3624 15.83 13.2798 15.7491 13.1787 15.7491C13.0754 15.7491 12.9919 15.8337 12.9919 15.9378C12.9919 15.9396 12.9919 15.9414 12.9919 15.9442L13.0617 17.8206C13.0655 17.9211 13.1492 17.9999 13.2493 17.9999Z" fill="white"/><path d="M13.3059 19.1251C13.2018 19.1251 13.1172 19.2088 13.1172 19.3119C13.1172 19.3145 13.1182 19.3173 13.1182 19.3202L13.1889 21.1947C13.1926 21.295 13.2753 21.3759 13.3763 21.3759C13.4798 21.3759 13.5631 21.2913 13.5631 21.1875C13.5631 21.1854 13.5631 21.1836 13.5631 21.1808L13.4927 19.3044C13.4888 19.2042 13.4061 19.1251 13.3059 19.1251Z" fill="white"/><path d="M14.3772 13.6881C14.3772 13.6833 14.3772 13.6777 14.3761 13.674L14.2358 11.7986C14.2283 11.7 14.1467 11.6238 14.0484 11.6238C13.9452 11.6238 13.8615 11.7095 13.8615 11.8114C13.8615 11.8161 13.8615 11.8218 13.8624 11.8264L14.0017 13.702C14.0092 13.7995 14.091 13.8764 14.1894 13.8764C14.2926 13.8763 14.3772 13.7911 14.3772 13.6881Z" fill="white"/><path d="M14.6021 16.6878C14.6021 16.6842 14.6021 16.6785 14.601 16.6738L14.4606 14.7975C14.4534 14.7009 14.3715 14.6238 14.2741 14.6238C14.1701 14.6238 14.0864 14.7084 14.0864 14.8122C14.0864 14.8161 14.0864 14.8215 14.0864 14.8254L14.2266 16.7017C14.2351 16.7994 14.3158 16.8753 14.4144 16.8753C14.5175 16.8754 14.6021 16.7909 14.6021 16.6878Z" fill="white"/><path d="M14.8546 20.062C14.8546 20.0584 14.8546 20.0548 14.8546 20.0491L14.7133 18.1725C14.7058 18.0751 14.6252 17.9999 14.5267 17.9999C14.4234 17.9999 14.3388 18.0834 14.3388 18.1864C14.3388 18.1921 14.3388 18.1957 14.3399 18.2004L14.481 20.0778C14.4878 20.1754 14.5693 20.2506 14.6667 20.2506C14.7709 20.2506 14.8546 20.1669 14.8546 20.062Z" fill="white"/><path d="M14.995 21.9229C14.9884 21.8263 14.9066 21.7493 14.8081 21.7493C14.704 21.7493 14.6206 21.8338 14.6206 21.9376C14.6206 21.9415 14.6206 21.9469 14.6206 21.9508L14.7617 23.8272C14.7692 23.9246 14.8509 24.0008 14.9492 24.0008C15.0517 24.0008 15.136 23.9163 15.136 23.8132C15.136 23.8096 15.136 23.8039 15.1354 23.7992L14.995 21.9229Z" fill="white"/><path d="M15.5976 14.8132C15.5976 14.8068 15.5976 14.7993 15.5966 14.7918L15.3858 12.9144C15.3747 12.8198 15.2948 12.7493 15.1992 12.7493C15.0961 12.7493 15.0114 12.8328 15.0114 12.9358C15.0114 12.9423 15.0125 12.9498 15.0125 12.9574L15.2244 14.8348C15.2344 14.9292 15.3153 15.0016 15.4101 15.0016C15.5139 15.0016 15.5976 14.9181 15.5976 14.8132Z" fill="white"/><path d="M15.9359 17.8133C15.9359 17.8058 15.9348 17.7994 15.9342 17.7929L15.7229 15.9155C15.713 15.8207 15.6321 15.7491 15.5364 15.7491C15.4333 15.7491 15.3496 15.8328 15.3496 15.9359C15.3496 15.9431 15.3496 15.9496 15.3506 15.9563L15.5615 17.8337C15.5726 17.9301 15.6524 18.0009 15.7483 18.0009C15.8513 18.0009 15.9359 17.9172 15.9359 17.8133Z" fill="white"/><path d="M16.1031 19.2915C16.092 19.1967 16.0121 19.1244 15.9162 19.1244C15.8131 19.1244 15.7297 19.2078 15.7297 19.3119C15.7297 19.3191 15.7297 19.3259 15.7297 19.3323L15.9414 21.2097C15.9528 21.3043 16.0327 21.3758 16.1271 21.3758C16.2312 21.3758 16.315 21.2924 16.315 21.1893C16.315 21.1818 16.315 21.1754 16.314 21.1689L16.1031 19.2915Z" fill="white"/><path d="M16.0966 11.622C15.9934 11.622 15.9091 11.7076 15.9091 11.8108C15.9091 11.8208 15.9097 11.8282 15.9108 11.8384L16.1932 13.7169C16.2071 13.8097 16.2861 13.8775 16.3779 13.8775C16.482 13.8775 16.5658 13.7931 16.5658 13.6888C16.5658 13.6795 16.5658 13.6712 16.5637 13.6609L16.2824 11.7828C16.2685 11.6907 16.1894 11.622 16.0966 11.622Z" fill="white"/><path d="M17.0161 16.6899C17.0161 16.6806 17.0154 16.6713 17.0137 16.662L16.732 14.7825C16.718 14.6908 16.6392 14.6228 16.5462 14.6228C16.443 14.6228 16.3593 14.7073 16.3593 14.8105C16.3593 14.8197 16.3593 14.8291 16.3615 14.8383L16.6438 16.7175C16.6567 16.8087 16.7355 16.8772 16.8287 16.8772C16.9317 16.8772 17.0161 16.7937 17.0161 16.6899Z" fill="white"/><path d="M17.5227 20.0659C17.5227 20.0556 17.5218 20.0455 17.5209 20.038L17.2385 18.1567C17.2246 18.0657 17.1455 17.9988 17.0528 17.9988C16.9494 17.9988 16.8659 18.0825 16.8659 18.1846C16.8659 18.195 16.8668 18.205 16.8677 18.2125L17.1491 20.0935C17.1631 20.1837 17.2421 20.2514 17.3351 20.2514C17.4382 20.2514 17.5227 20.1679 17.5227 20.0659Z" fill="white"/><path d="M18.0829 23.7873L17.8005 21.9078C17.7873 21.8159 17.7087 21.7482 17.6155 21.7482C17.5125 21.7482 17.4279 21.8327 17.4279 21.9357C17.4279 21.945 17.429 21.9543 17.4297 21.9636L17.7121 23.8428C17.7253 23.9338 17.8051 24.0025 17.8979 24.0025C18.0002 24.0025 18.0847 23.9172 18.0847 23.8149C18.0847 23.8049 18.0837 23.7964 18.0829 23.7873Z" fill="white"/></svg>

<svg class="color-immutable" width="30" height="30" viewBox="0 0 30 30" fill="none" xmlns="http://www.w3.org/2000/svg"><path d="M30 0H0v30h30V0Z" fill="#2D327D"/><path d="M25.5 3c.825 0 1.5.675 1.5 1.5v21c0 .825-.675 1.5-1.5 1.5h-21c-.825 0-1.5-.675-1.5-1.5v-21C3 3.675 3.675 3 4.5 3h21Zm0-.375h-21A1.877 1.877 0 0 0 2.625 4.5v21c0 1.034.841 1.875 1.875 1.875h21a1.877 1.877 0 0 0 1.875-1.875v-21A1.877 1.877 0 0 0 25.5 2.625Z" fill="#fff"/><path d="M6.385 21.748a.188.188 0 0 0-.186.16l-.281 1.88c-.002.009-.002.017-.002.027 0 .102.083.188.187.188.092 0 .171-.07.185-.16l.283-1.88.002-.027a.189.189 0 0 0-.188-.188ZM6.947 17.999a.187.187 0 0 0-.185.158l-.282 1.881a.187.187 0 0 0 .37.056l.283-1.881c.002-.008.002-.018.002-.028a.187.187 0 0 0-.188-.186ZM7.453 14.623a.187.187 0 0 0-.185.16l-.282 1.879-.002.028c0 .104.084.187.188.187a.19.19 0 0 0 .186-.16l.281-1.879a.188.188 0 0 0-.186-.216ZM7.622 13.877a.188.188 0 0 0 .185-.16l.282-1.879.001-.027a.188.188 0 0 0-.186-.19.188.188 0 0 0-.186.162l-.281 1.878-.002.028c0 .104.083.188.187.188ZM8.084 19.124a.187.187 0 0 0-.186.168l-.212 1.877v.02a.187.187 0 0 0 .373.02l.21-1.877c.003-.006.003-.013.003-.02a.187.187 0 0 0-.188-.188ZM8.463 15.75a.188.188 0 0 0-.186.165l-.21 1.878c-.002.006-.002.013-.002.02a.187.187 0 0 0 .374.02l.212-1.877v-.02a.187.187 0 0 0-.188-.187ZM8.989 12.936a.187.187 0 0 0-.188-.187.187.187 0 0 0-.186.165l-.211 1.878-.002.021a.188.188 0 0 0 .374.022l.211-1.878a.18.18 0 0 0 .002-.021ZM9.192 21.75a.188.188 0 0 0-.186.173l-.142 1.876v.014a.187.187 0 0 0 .374.014l.141-1.876.001-.013a.188.188 0 0 0-.188-.189ZM9.474 18a.187.187 0 0 0-.188.172l-.14 1.877v.013a.187.187 0 0 0 .374.016l.14-1.878.001-.014A.187.187 0 0 0 9.474 18ZM9.726 14.624a.188.188 0 0 0-.186.173l-.14 1.877-.001.014c0 .103.084.187.187.187.098 0 .18-.076.187-.173l.14-1.877.001-.013a.188.188 0 0 0-.188-.188ZM9.951 11.624a.187.187 0 0 0-.185.175l-.142 1.875v.014c0 .103.084.188.187.188.098 0 .18-.076.187-.174l.14-1.876v-.015a.188.188 0 0 0-.187-.187ZM10.694 19.125c-.1 0-.183.08-.187.18l-.07 1.876v.006c0 .104.084.189.187.189.101 0 .184-.081.187-.181l.071-1.875v-.008a.187.187 0 0 0-.188-.187ZM10.82 15.75c-.1 0-.183.08-.186.18l-.07 1.876v.007c0 .103.083.187.187.187a.186.186 0 0 0 .187-.18l.07-1.876v-.006a.188.188 0 0 0-.187-.189ZM10.933 12.75c-.1 0-.183.08-.186.18l-.071 1.875v.008c0 .103.083.187.188.187.1 0 .184-.08.186-.18l.07-1.876v-.008a.188.188 0 0 0-.187-.187ZM7.954 11.249h8.093a.45.45 0 0 0 .433-.57 4.65 4.65 0 0 0-3.73-3.343V6h-1.5v1.336a4.647 4.647 0 0 0-3.73 3.344.45.45 0 0 0 .434.569ZM12 11.626a.187.187 0 0 0-.187.185v1.877a.187.187 0 0 0 .374 0v-1.877a.187.187 0 0 0-.186-.185ZM12 14.625a.187.187 0 0 0-.187.187v1.876a.187.187 0 0 0 .374 0v-1.876a.188.188 0 0 0-.186-.187ZM12 18a.187.187 0 0 0-.187.189v1.873c0 .104.084.189.188.189a.188.188 0 0 0 .187-.189v-1.873a.188.188 0 0 0-.187-.19ZM12 21.75a.187.187 0 0 0-.187.188v1.875a.187.187 0 0 0 .374 0v-1.875a.188.188 0 0 0-.186-.188ZM13.137 15a.186.186 0 0 0 .187-.187v-.008l-.07-1.875a.188.188 0 0 0-.375.007v.007l.07 1.876c.005.1.087.18.188.18ZM13.25 18a.187.187 0 0 0 .187-.187v-.007l-.07-1.876a.189.189 0 0 0-.188-.18.188.188 0 0 0-.187.188v.006l.07 1.877c.004.1.087.179.187.179ZM13.306 19.125a.188.188 0 0 0-.189.187l.001.008.07 1.875a.188.188 0 0 0 .374-.007l.001-.007-.07-1.877a.187.187 0 0 0-.187-.179ZM14.377 13.688v-.014l-.141-1.875a.188.188 0 0 0-.188-.175.188.188 0 0 0-.186.202l.14 1.876a.19.19 0 0 0 .187.174.19.19 0 0 0 .188-.188ZM14.602 16.688l-.001-.014-.14-1.877a.189.189 0 0 0-.187-.173.188.188 0 0 0-.188.188v.013l.14 1.877c.01.097.09.173.188.173a.188.188 0 0 0 .188-.187ZM14.855 20.062v-.013l-.142-1.877a.188.188 0 0 0-.373.028l.141 1.878a.188.188 0 0 0 .374-.016ZM14.995 21.923a.188.188 0 0 0-.374.015v.013l.14 1.876a.188.188 0 0 0 .374-.014V23.8l-.14-1.876ZM15.598 14.813l-.001-.021-.211-1.878a.188.188 0 0 0-.374.021v.022l.212 1.878a.187.187 0 0 0 .374-.022ZM15.936 17.813l-.002-.02-.211-1.877a.187.187 0 0 0-.373.02v.02l.212 1.878a.188.188 0 0 0 .374-.02ZM16.103 19.291a.189.189 0 0 0-.187-.167.187.187 0 0 0-.186.188v.02l.211 1.878a.187.187 0 0 0 .374-.02l-.001-.021-.21-1.878ZM16.097 11.622a.19.19 0 0 0-.186.216l.282 1.879a.188.188 0 0 0 .373-.028c0-.01 0-.018-.002-.028l-.282-1.878a.189.189 0 0 0-.185-.161ZM17.016 16.69c0-.01 0-.019-.002-.028l-.282-1.88a.188.188 0 0 0-.37.056l.282 1.88a.187.187 0 0 0 .372-.028ZM17.523 20.066l-.002-.028-.283-1.881a.187.187 0 0 0-.185-.158.187.187 0 0 0-.185.213l.281 1.881a.188.188 0 0 0 .374-.027ZM18.083 23.787l-.282-1.88a.186.186 0 0 0-.185-.159.188.188 0 0 0-.188.188l.002.028.282 1.879c.013.09.093.16.186.16a.189.189 0 0 0 .187-.188l-.002-.028Z" fill="#fff"/></svg>
